X:1
T:Sacramento, 76.76 D
T:Sacramento, 76.76 D
T:William Walker (1809-1875)
T:Public Domain Courtesy of the Cyber Hymnal™
C:William Walker (1809-1875)
Z:Public Domain
Z:Courtesy of the Cyber Hymnal™
%%score ( 1 2 ) ( 3 4 )
L:1/8
Q:1/4=115
M:4/4
K:Bb
V:1 treble 
V:2 treble 
V:3 bass 
V:4 bass 
V:1
 [DB]4 | [DB]2 F2 [EG]2 [EB]2 | ([Ec]3 [DB]) [Fd]2 [Ec]2 | [DB]2 [DG]2 [DB]2 [EG]2 | [DF]4 [DB]4 | %5
 [DB]2 F2 [EG]2 [EB]2 | ([Ec]3 [DB]) [Fd]2 [Ec]2 | [DB]2 [DG]2 [EB]2 [EG]2 | [DF]4 [Bf]4 | %9
 [Fd]2 [Fc]2 (Bc) [Fd]2 | [Bf]4 [Bg]2 [Bf]2 | [Fd]2 [Fc]2 (Bc) [Fd]2 | (GFGA [DB]2) [DB]2 | %13
 [DB]2 F2 [EG]2 [EB]2 | [Ec]3 [DB] [Fd]2 [Ec]2 | [DB]2 [DF]2 [EA]2 [EG]2 | [DF]4 |] %17
V:2
 x4 | x2 F2 x4 | x8 | x8 | x8 | x2 F2 x4 | x8 | x8 | x8 | x4 F2 x2 | x8 | x4 F2 x2 | E4 x4 | %13
 x2 F2 x4 | x8 | x8 | x4 |] %17
V:3
 [B,,B,]4 | [B,,B,]2 [D,B,]2 [E,B,]2 [G,B,]2 | (A,3 G,) B,2 [F,A,]2 | %3
 [G,B,]2 [G,B,]2 [E,G,]2 [E,B,]2 | [B,,B,]4 [B,,B,]4 | [B,,B,]2 [D,B,]2 [E,B,]2 [G,B,]2 | %6
 (A,3 G,) B,2 [F,A,]2 | [G,B,]2 [G,B,]2 [E,G,]2 [E,B,]2 | [B,,B,]4 [B,D]4 | %9
 B,2 [F,A,]2 ([D,B,][F,A,]) B,2 | [B,D]4 [E,E]2 [B,D]2 | B,2 [F,A,]2 ([D,B,][C,A,]) [B,,B,]2 | %12
 (B,A,G,F, [B,,F,]2) [B,,B,]2 | [B,,B,]2 [D,B,]2 [E,B,]2 [G,B,]2 | A,3 G, B,2 [F,A,]2 | %15
 [G,B,]2 [G,B,]2 [E,G,]2 [E,B,]2 | [B,,B,]4 |] %17
V:4
 x4 | x8 | F,4 x4 | x8 | x8 | x8 | F,4 B,2 x2 | x8 | x8 | B,2 x2 B,2 x2 | x8 | B,2 x6 | E,3 F, x4 | %13
 x8 | F,4 B,2 x2 | x8 | x4 |] %17

